X:136
T:One step n?1 
R:One step
S:Carnet du tambourinaire Ginas (1924)
O:France
A:Provence
C:J. Ginas
L:1/8
Z:Transcrit et/ou corrig? par Michel BELLON - 2005-06-04
Z:Pour toute observation mailto:galouvielle@free.fr
M:2/4
Q:1/4=160
K:F
S c | Ac de | dc zA | c2f2 | e2 zg | gffe | ed zd | e2d2 | c2 zc | =BAGe | dc2e | 
f2g2 | e2ze | dc=BA | cG^FG | A2d2 | c2zc | c2G2 | c2zc | c2d>e | cz F>G || 
A4- | A2G>A | B4- | B2 c>d | ee ff | ee dd | c4- | c2F>G | A4- | A2 c>A | 
G4- | G2G>A | =BAGA | =Bfed | c4- | c2 F>G | A4-A2 G>A | B4- | B2 c>d | ee ff | 
ee dd | c4- | c2 F>G | A4- | A2 B>c | d4 | d2 e>d | c2 g>f | e2 a>g | f4- | f2z S |]
<end>
<start>
